X:1
T:Title
%%score { ( 1 3 ) | ( 2 4 ) }
L:1/8
M:3/4
K:F
V:1 treble nm="Grand Piano"
V:3 treble 
V:2 bass 
V:4 bass 
V:1
 z2 z2 z[Q:1/4=82] C | A>G F3 C | B>A G3 C | AB c3 d |[M:5/8] B>A [EG]3 |[M:1/8] [EG] | %6
[M:3/4] AB c3 A | [DG]A B3 [Fd] | [Fc][F=B] [Fc]3 [DF_B] |[M:5/8] [B,EG][CEA] [A,F]3 | %10
[M:4/4] z2 z G- G4 | z4 [CF][CF]FF | z2 z B- B4 | z2 z c- c4 | z2 z B- B4 | z2 z A- A4- | %16
 A z z2 z4 |[M:5/8] [G,CE][CEA][B,EG] [A,F]2- | [A,F]3 z2 |] %19
V:2
 z2 z2 z [F,A,] | [F,CF]>[F,B,C] [F,A,C]3 [F,A,] | [G,CE]>[A,CE] [B,CE]4 | %3
 [F,CF][G,CE] [A,CF]3 [_A,=B,F] |[M:5/8][K:bass] [G,CE]>[F,CF] [C,C]3 |[M:1/8] [C,C] | %6
[M:3/4] [F,CF][K:treble][G,CE] [A,CF]3[K:bass] [F,CF] | [B,,B,][D,^F,D] [G,D]3 [=B,,_A,] | %8
 [C,A,][^C,G,] [=C,A,]3 C, |[M:5/8] C,C, F,3 |[M:4/4] z4 [C,C][E,C][K:treble][G,C]C | %11
 z2 z[K:bass] A- A4 | z4 [C,C][E,C][G,C]C | z4 [A,C][G,B,][C,B,][F,A,] | %14
 z4 [G,C][F,D][F,^C][E,=C] | z4 [F,A,][E,G,][A,,G,][D,F,]- | [D,F,] B,,2 =B,, B,, C,3 | %17
[M:5/8] C,C,C, F,2- | F,3 z2 |] %19
V:3
 x6 | x6 | x6 | x6 |[M:5/8] x5 |[M:1/8] x |[M:3/4] x6 | x6 | x6 |[M:5/8] x5 |[M:4/4] CE .F2 EEEE | %11
 x8 | CG .A2 EEEE | GA .B2 FEEF | Ad .c2 EFFG | Gc .B2 C^CCD- | %16
 D [G,DG]2 [G,DF] [_A,^CF] [=A,=CF]3 |[M:5/8] x5 | x5 |] %19
V:4
 x6 | x6 | x6 | x6 |[M:5/8][K:bass] x5 |[M:1/8] x |[M:3/4] x[K:treble] x4[K:bass] x | x6 | x6 | %9
[M:5/8] x5 |[M:4/4] x6[K:treble] x2 | CF .G2[K:bass] F,,A,,[C,C][F,C] | x8 | x8 | x8 | x8 | x8 | %17
[M:5/8] x5 | x5 |] %19

